src/assets/icons/muscles_parts/calf.svg

<svg  viewBox="0 0 512 512" fill="none" xmlns="http://www.w3.org/2000/svg">
<path d="M198.703 9.85275C204.025 9.87175 208.517 13.7977 209.245 19.0697C213.166 47.4727 229.771 115.33 230.517 171.269C231.363 234.719 201.753 287.17 201.753 332.008C201.753 361.374 203.447 435.212 209.222 463.251C211.908 476.295 209.934 500.305 192.833 500.305C130.126 500.305 65.974 477.347 58.502 476C51.03 474.652 46.091 470.997 46.091 464.244C46.091 454.685 51.276 445.879 59.635 441.242L127.276 421.209C143.353 414.719 133.842 377.849 133.842 377.849C130.688 338.842 124.946 300.09 116.835 261.806C88.336 127.273 105.911 65.3447 116.983 17.8558C118.114 13.0038 122.443 9.57875 127.425 9.59675L198.703 9.85275Z" fill="#484F69"/>
<path d="M378.548 9.5948C383.53 9.5768 387.859 13.0018 388.99 17.8538C400.062 65.3428 417.638 127.271 389.138 261.804C381.028 300.089 375.285 338.84 372.132 377.847C372.132 377.847 366.373 414.717 389.071 426.13L446.339 441.24C454.697 445.877 459.882 454.684 459.882 464.242C459.882 470.995 454.214 476.364 447.471 475.998C447.471 475.998 353.876 500.303 338.912 500.303C323.948 500.303 302.57 492.465 302.94 464.426C308.714 436.387 304.22 361.373 304.22 332.007C304.22 287.169 274.61 234.718 275.456 171.268C276.202 115.329 292.808 47.4718 296.728 19.0688C297.456 13.7968 301.948 9.8708 307.27 9.8518L378.548 9.5948Z" fill="#484F69"/>
<path d="M161.094 38.2568C161.094 38.2568 145.014 244.053 181.447 279.142C207.856 304.577 213.565 176.218 204.393 138.261C194.408 96.9348 170.213 -15.0292 161.094 38.2568Z" fill="#FF4858"/>
<path d="M152.249 38.2568C152.249 38.2568 147.514 139.828 152.249 198.117C156.01 244.419 162.363 282.644 141.846 275.492C121.329 268.34 101.717 178.408 112.384 123.661C123.051 68.9138 150.06 1.02982 152.249 38.2568Z" fill="#FF4858"/>
<path d="M342.991 38.2568C342.991 38.2568 359.415 244.413 322.638 279.142C297.696 302.695 290.52 176.218 299.692 138.261C309.677 96.9348 333.873 -15.0292 342.991 38.2568Z" fill="#FF4858"/>
<path d="M351.836 38.2568C351.836 38.2568 356.571 139.828 351.836 198.117C348.075 244.419 341.078 282.644 361.595 275.492C382.112 268.34 402.368 178.408 391.701 123.661C381.034 68.9138 354.026 1.02982 351.836 38.2568Z" fill="#FF4858"/>
</svg>

<svg id="Layer_2" enable-background="new 0 0 512 512" viewBox="0 0 512 512" xmlns="http://www.w3.org/2000/svg"><g><g><path d="m198.703 9.853c5.322.019 9.814 3.945 10.542 9.217 3.921 28.403 20.526 96.26 21.272 152.199.846 63.45-28.764 115.901-28.764 160.739 0 29.366 1.694 103.204 7.469 131.243 2.686 13.044.712 37.054-16.389 37.054-62.707 0-126.859-22.958-134.331-24.305-7.472-1.348-12.411-5.003-12.411-11.756 0-9.559 5.185-18.365 13.544-23.002l67.641-20.033c16.077-6.49 6.566-43.36 6.566-43.36-3.154-39.007-8.896-77.759-17.007-116.043-28.499-134.533-10.924-196.461.148-243.95 1.131-4.852 5.46-8.277 10.442-8.259z" fill="#484f69"/></g><g><path d="m378.548 9.595c4.982-.018 9.311 3.407 10.442 8.259 11.072 47.489 28.648 109.417.148 243.95-8.11 38.285-13.853 77.036-17.006 116.043 0 0-5.759 36.87 16.939 48.283l57.268 15.11c8.358 4.637 13.543 13.444 13.543 23.002 0 6.753-5.668 12.122-12.411 11.756 0 0-93.595 24.305-108.559 24.305s-36.342-7.838-35.972-35.877c5.774-28.039 1.28-103.053 1.28-132.419 0-44.838-29.61-97.289-28.764-160.739.746-55.939 17.352-123.796 21.272-152.199.728-5.272 5.22-9.198 10.542-9.217z" fill="#484f69"/></g><g fill="#FF4858"><path d="m161.094 38.257s-16.08 205.796 20.353 240.885c26.409 25.435 32.118-102.924 22.946-140.881-9.985-41.326-34.18-153.29-43.299-100.004z"/><path d="m152.249 38.257s-4.735 101.571 0 159.86c3.761 46.302 10.114 84.527-10.403 77.375s-40.129-97.084-29.462-151.831 37.676-122.631 39.865-85.404z"/><path d="m342.991 38.257s16.424 206.156-20.353 240.885c-24.942 23.553-32.118-102.924-22.946-140.881 9.985-41.326 34.181-153.29 43.299-100.004z"/><path d="m351.836 38.257s4.735 101.571 0 159.86c-3.761 46.302-10.758 84.527 9.759 77.375s40.773-97.084 30.106-151.831-37.675-122.631-39.865-85.404z"/></g></g></svg>
